X: 592
T: The Lads of Elgin
R: reel
B: Robert Bremner "A Collection of Scots Reels or Country Dances" 1757 p.59 #2
S: http://imslp.org/wiki/A_Collection_of_Scots_Reels_or_Country_Dances_(Bremner,_Robert)
Z: 2013 John Chambers <jc:trillian.mit.edu>
N: The 2nd strain has initial repeat but no final repeat; not fixed.
M: C|
L: 1/8
K: Amix
% - - - - - - - - - - - - - - - - - - - - - - - - -
V: 1
B |\
ABcd edTcA | BE E/E/E GABG |\
ABcd edTcA | BE E/E/E A2-A :|\
|: B |\
Aaef deTcA | BE E/E/E GABG |
Aaef deTcA | BE E/E/E A2AB |\
Aaef deTcA | BE E/E/E GABG |\
ABcd edTcA | BE E/E/E A2 A |]
% - - - - - - - - - - - - - - - - - - - - - - - - -
V: 2 clef=bass middle=d
z |\
a2a2 a2a2 | e2e2 g2g2 |
a2a2 a2a2 | e2e2 A2A :|\
|: z |\
a2a2 a2a2 | e2e2 g2g2 |
a2a2 a2a2 | e2e2 A2A2 |\
a2a2 a2a2 | e2e2 g2g2 |\
a2a2 a2a2 | e2e2 A2A |]
% - - - - - - - - - - - - - - - - - - - - - - - - -

%%sep 1 1 500
%%sep 1 1 500
